!!!COM: Giovanni Maria Nanino
!!!OPR: Regole di contrappunto di Gio. M. Nanino e del suo fratello minore.
!!!OTL: [Didactic example]
!!!YOR: MS ca. 1580-ca.1610.
!!!YOR: Bologna, Civico Museo Bibliografico Musicale.
!!!ONB: Reprinted (without acknowledgement) by Rocco Rodio "Regole di musica"
!!!ONB: [3rd edition].  Naples: Gio. Giocomo Carlino & Costantino Vitale, 1619.
!!!ONB: Encoded from Rodio, p. 32.
!!!ONB: Canon up an octave after a minim with the cantus firmus above.
**kern	**kern	**kern
*guida	*CF	*conseq
*M4/2	*M4/4	*M4/2
*k[]	*k[]	*k[]
=1	=1	=1
4FF	1A	2r
4GG	.	.
4AA	.	4F
4BB	.	4G
2C	1E	4A
.	.	4B
2AA	.	2c
=2	=2	=2
4A	1D	2A
4G	.	.
4F	.	4a
4E	.	4g
2D	1F	4f
.	.	4e
2r	.	2d
=3	=3	=3
1AA	1E	2r
.	.	1A
4A	1D	.
4G	.	.
4F	.	4a
4E	.	4g
=4	=4	=4
4D	1F	4f
4C	.	4e
4BB-	.	4d
4AA	.	4c
2GG	1G	4B-
.	.	4A
2C	.	2G
=5	=5	=5
2AA	1A	2c
2FF	.	2A
2AA	1c	2F
2r	.	2A
=6	=6	=6
2G	1B	2r
2E	.	2g
2C	1A	2e
4F	.	2c
4G	.	.
=7	=7	=7
4A	1c	4f
4G	.	4g
4F	.	4a
4E	.	4g
2D	1d	4f
.	.	4e
4G	.	2d
4F	.	.
=8	=8	=8
4E	1G	4g
4D	.	4f
4C	.	4e
4BB	.	4d
2AA	1A	4c
.	.	4B
2D	.	2A
=9	=9	=9
2BB	1G	2d
1GG	.	2B
.	1d	1G
2G	.	.
=10	=10	=10
2E	1c	2g
2A	.	2e
2r	1d	2a
2G	.	2r
=11	=11	=11
2E	1G	2g
2C	.	2e
4F	1F	2c
4E	.	.
4D	.	4f
4C	.	4e
=12	=12	=12
2BB-	1B-	4d
.	.	4c
2r	.	2B-
2D	1A	2r
[2D	.	2d
=13	=13	=13
4D]	1D	2.d
4C	.	.
4BB	.	.
4AA	.	4c
2GG	1E	4B
.	.	4A
4G	.	2G
4F	.	.
=14	=14	=14
4E	1G	4g
4D	.	4f
4C	.	4e
4BB	.	4d
4AA	1A	4c
4GG	.	4B
[2FF	.	4A
.	.	4G
=15	=15	=15
2FF]	1c	1F
2r	.	.
1D	1B	2r
.	.	[2d
=16	=16	=16
2D	1A	2d]
2D	.	2d
2GG	1G	2d
2C	.	2G
=17	=17	=17
1AA	1F	2c
.	.	1A
2AA	1E	.
2AA	.	2A
=18	=18	=18
2D	1D	2A
2r	.	2d
1AA	1E	2r
.	.	[2A
=19	=19	=19
0D	0D	2A]
.	.	1.d
==	==	==
*-	*-	*-
!!!CDT: 1545///-1607/3/11
!!!OCY: Italia
!!!ODT: 1586
!!!AFR: cantus firmus canon
!!!AST: polyphony
!!!AMT: simple quadruple
!!!AIN: vox
!!!YEP: David Huron and Denis Collins
!!!YEN: Canada
!!!EEV: 1.0
!!!RDT: 1995 July 23
!!!YED: 1995 August 31
